resources/svg/major-hide-keyboard.svg

<svg xmlns="http://www.w3.org/2000/svg" viewBox="0 0 20 20" fill="currentColor"><path fill-rule="evenodd" d="M0 3.5a1.5 1.5 0 0 1 1.5-1.5h17a1.5 1.5 0 0 1 1.5 1.5v7a1.5 1.5 0 0 1-1.5 1.5h-17a1.5 1.5 0 0 1-1.5-1.5v-7zm3 .5h2v2h-2v-2zm1 4v2h2v-2h-2zm8 2h-4v-2h4v2zm-3-6h-2v2h2v-2zm4 0h-2v2h2v-2zm4 0h-2v2h2v-2zm-1 6v-2h-2v2h2z"/><path d="m10 16.586-2.293-2.293a1 1 0 0 0-1.414 1.414l3 3a1 1 0 0 0 1.414 0l3-3a1 1 0 0 0-1.414-1.414l-2.293 2.293z"/></svg>

<svg xmlns="http://www.w3.org/2000/svg" viewBox="0 0 20 20" fill="currentColor"><path fill-rule="evenodd" d="M0 3.5A1.5 1.5 0 011.5 2h17A1.5 1.5 0 0120 3.5v7a1.5 1.5 0 01-1.5 1.5h-17A1.5 1.5 0 010 10.5v-7zM3 4h2v2H3V4zm1 4v2h2V8H4zm8 2H8V8h4v2zM9 4H7v2h2V4zm4 0h-2v2h2V4zm4 0h-2v2h2V4zm-1 6V8h-2v2h2z" fill="#5C5F62"/><path d="M10 16.586l-2.293-2.293a1 1 0 00-1.414 1.414l3 3a1 1 0 001.414 0l3-3a1 1 0 00-1.414-1.414L10 16.586z" fill="#5C5F62"/></svg>
